public/images/game-icons/mu.svg

<?xml version="1.0" encoding="UTF-8" standalone="no"?><!DOCTYPE svg PUBLIC "-//W3C//DTD SVG 1.1//EN" "http://www.w3.org/Graphics/SVG/1.1/DTD/svg11.dtd"><svg width="100%" height="100%" viewBox="0 0 5867 5867" version="1.1" xmlns="http://www.w3.org/2000/svg" xmlns:xlink="http://www.w3.org/1999/xlink" xml:space="preserve" xmlns:serif="http://www.serif.com/" style="fill-rule:evenodd;clip-rule:evenodd;stroke-linejoin:round;stroke-miterlimit:2;"><path d="M731.122,1344.32l4404.42,-0l0,2694.54l-790.083,-0l-678.057,483.484l-2936.28,0l0,-3178.02Zm4103.72,477.588l-0,-176.885l-383.25,0l0,176.885l383.25,-0Zm-383.25,1261.78l0,182.781l383.25,-0l-0,-182.781l-383.25,0Zm0,-483.484l0,182.781l383.25,-0l-0,-182.781l-383.25,0Zm0,-477.588l0,182.781l383.25,-0l-0,-182.781l-383.25,0Zm-878.526,2099.03l577.823,-406.835l-0,-2169.78l-3119.06,0l-0,2576.62l2541.24,-0Zm878.526,-660.369l0,182.781l383.25,-0l-0,-182.781l-383.25,0Z" style="fill-rule:nonzero;"/></svg>

<?xml version="1.0" encoding="UTF-8" standalone="no"?>
<!DOCTYPE svg PUBLIC "-//W3C//DTD SVG 1.1//EN" "http://www.w3.org/Graphics/SVG/1.1/DTD/svg11.dtd">
<svg width="100%" height="100%" viewBox="0 0 5867 5867" version="1.1" xmlns="http://www.w3.org/2000/svg" xmlns:xlink="http://www.w3.org/1999/xlink" xml:space="preserve" xmlns:serif="http://www.serif.com/" style="fill-rule:evenodd;clip-rule:evenodd;stroke-linejoin:round;stroke-miterlimit:2;">
    <g transform="matrix(1.21091,0,0,1.21091,-618.656,-618.656)">
        <path d="M731.122,1344.32L5135.54,1344.32L5135.54,4038.86L4345.46,4038.86L3667.4,4522.34L731.122,4522.34L731.122,1344.32ZM4834.84,1821.91L4834.84,1645.02L4451.59,1645.02L4451.59,1821.91L4834.84,1821.91ZM4451.59,3083.69L4451.59,3266.47L4834.84,3266.47L4834.84,3083.69L4451.59,3083.69ZM4451.59,2600.2L4451.59,2782.99L4834.84,2782.99L4834.84,2600.2L4451.59,2600.2ZM4451.59,2122.62L4451.59,2305.4L4834.84,2305.4L4834.84,2122.62L4451.59,2122.62ZM3573.07,4221.65L4150.89,3814.81L4150.89,1645.03L1031.83,1645.03L1031.83,4221.65L3573.07,4221.65L3573.07,4221.65ZM4451.59,3561.28L4451.59,3744.06L4834.84,3744.06L4834.84,3561.28L4451.59,3561.28Z" style="fill-rule:nonzero;"/>
    </g>
</svg>
